X: 030731
T: Centenary
S: "Collection of the Dance Music of Ireland" (P. McNulty)
Z: B.Black
L: 1/8
M: 6/8
R: jig
K: D
A|FGA F2D|A,CE D2d/e/|fed dcB|AEF GFG|
A2B G2A|FAd fed|cBA GEC|D3 D2 :|
C/B,/|A2,F FED|fAd f2e|dFA dcB|AEF GAG|
FGA ABc|dAG FGA|BGB AFA|GEC D2 :|
